docs/.gitbook/assets/icon-speaker-on-16@light.svg

<svg width="32" height="32" viewBox="0 0 16 16" fill="none" xmlns="http://www.w3.org/2000/svg">
<rect x="0" y="0" width="16" height="16" fill="#fff"/>
<path fill-rule="evenodd" clip-rule="evenodd" d="M10 1.75C10 1.45465 9.82667 1.18681 9.55724 1.06582C9.28782 0.944828 8.97247 0.993225 8.75173 1.18944L4.82006 4.68426C4.59124 4.88765 4.29574 5 3.9896 5H2.75C1.7835 5 1 5.7835 1 6.75V9.25C1 10.2165 1.7835 11 2.75 11H3.9896C4.29574 11 4.59124 11.1123 4.82006 11.3157L8.75173 14.8106C8.97247 15.0068 9.28782 15.0552 9.55724 14.9342C9.82667 14.8132 10 14.5453 10 14.25V1.75ZM5.8166 5.80537L8.5 3.42013V12.5799L5.8166 10.1946C5.31321 9.74716 4.66312 9.5 3.9896 9.5H2.75C2.61193 9.5 2.5 9.38807 2.5 9.25V6.75C2.5 6.61193 2.61193 6.5 2.75 6.5H3.9896C4.66311 6.5 5.31321 6.25283 5.8166 5.80537ZM13.1267 5.10144C12.7685 4.8934 12.3095 5.01512 12.1015 5.3733C11.8939 5.73058 12.0145 6.18819 12.3706 6.39696L12.3756 6.39997C12.3815 6.40359 12.3923 6.41028 12.4073 6.41996C12.4373 6.43936 12.4835 6.47039 12.5406 6.51226C12.6559 6.59691 12.8087 6.72101 12.9593 6.87767C13.2738 7.20491 13.5 7.58965 13.5 7.99998C13.5 8.41032 13.2738 8.79506 12.9593 9.1223C12.8087 9.27896 12.6559 9.40306 12.5406 9.48771C12.4835 9.52958 12.4373 9.56061 12.4073 9.58001C12.3923 9.58969 12.3815 9.59638 12.3756 9.6L12.3706 9.60301C12.0145 9.81177 11.8939 10.2694 12.1015 10.6267C12.3095 10.9849 12.7685 11.1066 13.1267 10.8985L12.75 10.25C13.1267 10.8985 13.1269 10.8984 13.1271 10.8983L13.1276 10.898L13.1287 10.8973L13.1313 10.8958L13.1381 10.8918L13.1581 10.8797C13.1741 10.8699 13.1956 10.8565 13.2216 10.8397C13.2737 10.8061 13.3446 10.7583 13.4282 10.6969C13.5941 10.5751 13.8163 10.3952 14.0407 10.1617C14.4762 9.70867 15 8.96841 15 7.99998C15 7.03156 14.4762 6.2913 14.0407 5.83822C13.8163 5.60474 13.5941 5.42485 13.4282 5.30305C13.3446 5.2417 13.2737 5.1939 13.2216 5.16027C13.1956 5.14343 13.1741 5.13006 13.1581 5.12024L13.1381 5.10817L13.1313 5.10414L13.1287 5.10262L13.1276 5.10199L13.1271 5.10171C13.1269 5.10157 13.1267 5.10144 12.75 5.74998L13.1267 5.10144Z" fill="#000"/>
</svg>

<svg xmlns="http://www.w3.org/2000/svg" width="32" height="32" fill="none" viewBox="0 0 16 16"><path fill="#fff" d="M0 0h16v16H0z"/><path fill="#000" fill-rule="evenodd" d="M10 1.75a.75.75 0 0 0-1.248-.56L4.82 4.683A1.25 1.25 0 0 1 3.99 5H2.75A1.75 1.75 0 0 0 1 6.75v2.5c0 .966.784 1.75 1.75 1.75h1.24c.306 0 .601.112.83.316l3.932 3.495A.75.75 0 0 0 10 14.25zM5.817 5.805 8.5 3.42v9.16l-2.683-2.385A2.75 2.75 0 0 0 3.99 9.5H2.75a.25.25 0 0 1-.25-.25v-2.5a.25.25 0 0 1 .25-.25h1.24a2.75 2.75 0 0 0 1.827-.695m7.31-.704a.75.75 0 0 0-.756 1.296l.005.003.031.02q.046.03.134.092c.115.085.268.209.418.366.315.327.541.712.541 1.122s-.226.795-.54 1.122a3.3 3.3 0 0 1-.584.478l-.005.003a.75.75 0 0 0 .756 1.296l-.377-.649.377.648h.002l.002-.002.007-.004.02-.012a3 3 0 0 0 .27-.183c.166-.122.388-.302.613-.535C14.476 9.709 15 8.968 15 8s-.524-1.709-.96-2.162a4.8 4.8 0 0 0-.882-.718l-.02-.012-.007-.004-.002-.001zl-.378.648z" clip-rule="evenodd"/></svg>
